X:1
T:Come Hither With Your Zither
T:Come hither with your zither
T:Art Noel, Richard Donnelly
C:Art Noel, Max Miller, Richard Donnelly
Z:All Rights Reserved
L:1/4
M:4/4
K:C
V:1 treble nm="Electric Piano"
%%MIDI program 4
V:1
 z2 z"G7" G |:"C" E G G G | A G2 G | c2 E G- | G3"C" c |"G7" B2 D F- | F3 B |"C" A2 E"G7" G- | %8
w: Come|hith- er with your|Zith- er and|play to me|* a|mel- o- dy|* in|an- y key|
 G3 G |"C" E G G G | A G2 G | c2 E G- | G3"C" c |"G7" B2 B B- | B G A B |"C" c4- |"Dm7" c3"C7" z | %17
w: * come|hith- er with your|Zith- er and|play a tune|* and|I will swoon|* in- to your|arms||
"F" A ^G A B | d c B A |"C" c2 E G- | G2 z2 |"D7" D E ^F G | A B c ^c | d2 B"G" G- | G3"G7" G | %25
w: Its a new sen-|sa- tion though its|ve- ry old||but my heart needs|warm- ing up be-|cause its cold|* come|
"C" E G G G | A G G G | c2 E G- | G3"C" c |"G7" B B B B | B G A B |1"C" c4- ||1 c z"G7" z G :|2 %33
w: hith- er with your|zith- er make my|dreams come trye|* and|I will al- ways|be in love with|you|* come|
"C" c4- || c z z2 |] %35
w: you||

